X:1
T: Mrs. Jamieson's Favourite
C:
R:Jig
Q:180
K:A
M:6/8
L:1/16
|:F2|E3AB2 c4A2|F4E2 F4A2|E3Ac2 e4f2|e4c2 B4c2|
E3AB2 c4A2|F4E2 F4A2|E3AB2 c2e2f2|c4B2 A4c2|
e4A2 f4A2|e4E2 F4A2|e4A2 f4A2|a4c2 B4c2|
e4A2 A2B2c2|F4E2 F4A2|E3AB2 c2e2f2|c4B2 A4:|
